!!!PDT:	1923
!!!SOCIAL_FUNCTION: Mandan Garden Songs
!!!LANG: Non-Tone
!!!LING_GROUP: Siouan
!!!REG: Dakotas
!!!COM: Anon.
!!!OTL: I am Alone
!!!ODT: <1918//
!!!MPN: Wopite [Scattered Corn, Mrs. Holding Eagle]
!!!MLC: Fort Berthold Reservation, North Dakota, United States of America
!! Song was recorded during either the summer of 1912, 1915, or 1918.
!!!AGN: monody
!!!AMT: irregular
!!!RWG: Transcribed pitches, durations, and meters are only approximate.
!! Drum not recorded.
**kern
*ICvox
*Ifemale
*clefG2
*k[b-e-a-]
*M3/4
*MM66
=1-
8.b-
16b-
4g
8.b-
16g
=2
16b-
16g
8g
4b-;
16cc
16b-
16b-
16g
=3
16b-
[8.g
8g]
8f
4e-
*M2/4
=4
4f
4f
=5
4g
16g
8f
16f
*M3/4
=6
4..e-
16e-
4B-
*M2/4
=7
2e-
=8
16g
[8.f
8.f]
16e-
=9
16f
[8.e-
8.e-]
16B-
*M3/4
=10
4B-
2B-
*M2/4
=11
4.r
8g
*M3/4
=12
4g
4b-
16b-
16g
16b-
16g
*M2/4
8.g
16f
4e-
*M3/4
=13
4f
4f
4f
=14
4g
16g
[8.f
8.f]
16e-
=15
16f
[8.e-
8.e-]
16B-
4B-
=16
8.e-
16e-
2e-
*M2/4
=17
16g
[8.f
8.f]
16e-
=18
2e-
=19
16f
8.e-
4e-
=20
4B-
4B-
=21
2B-
==
*-
!!!CNT: Mandan
!!!TXO: Mandan
!!!OCY: United States
!!!OCL: Frances Densmore
!!!YOR: Frances Densmore, "Mandan and Hidatsa Music",
!!!YOR: Bulletin 80, page 55, No. 13
!!!PPR: Smithsonian Institution, Bureau of American Ethnology
!!!PPR: Government Printing Office
!!!PDT: 1923
!!!PPP: Washington, DC, United States of America
!!!YEC: Electronic Copyright 2000 David Huron
!!!YER: August 2000
!!!YEN: United States of America
!!!ENC: David Huron
!!!RDT: August 16, 2000
!!!EEV: Release 1.0
!!!AIN: tom, vox
